X: 660
T: Esmerliği Yıldız Dolu...
C: Muallim İsmail Hakkı Bey
O: Turkey
F: http://compmusic.upf.edu/node/140
N: nevruz--sarki--yuruksemai_ii--esmerligi_yildiz--muallim_ismail_hakki_bey
N: makam= nevruz
N: form= sarki
N: usul= yuruksemai_ii = 6/8
M: 6/8
L: 1/16
K: C _1/4B   
Q: 1/4=144
%%MIDI tuningsystem comma53
cdef g2a2 z2g2  | f2e2 f2g4z2  | fgag agf2 z2e2  | 
w:  ARANAĞME  |   |   | 
d2d2 e2c4z2  | f2e2 d2e2 z2c2  | d2c2 B2d4z2  | \
w:   |   |   | 
(3d2d2d2 A2(3d2d2d2A2  | 
w:   | 
G2G2 A2A4z2  | cdef g2a2 z2g2  | f2e2 f2g4z2  | \
w:   |  ARANAĞME  |   | 
fgag agf2 z2e2  | 
w:   | 
d2d2 e2c4z2  | f2e2 d2e2 z2c2  | d2c2 B2d4z2  | \
w:   |   |   | 
(3d2d2d2 A2(3d2d2d2A2  | 
w:   | 
G2G2 A2A4z2  | f6c6  | d2c2 _B2A6  | f4 f2f2 e4  | \
w:   |  Es mer  |  li *  ği  yıl  |  dız  do lu  bir   | 
d4 c2B2 c2d2  | {f}e6z4z2  | 
w:  yaz  ge ce siy  |  *  di    | 
f6c6  | d2c2 _B2A4z2  | c4 c2c2 c4  | f4 f2f2 e2g2  | \
w:  Çam lık   |  bi *  ze  bir   |  kuy tu  mu hab  |  bet  ka fe siy  | 
{a}f6z4z2  | f6c6  | 
w:  *  di    |  Çam lık   | 
d2c2 _B2A4z2  | d4 d2d2 d4  | A4 A2A2 G2A2  | \
w:  bi *  ze  bir   |  kuy tu  mu hab  |  bet  ka fe siy  | 
{G}A8-A2z2  | a6a6  | g2a2 _b2a4z2  | 
w:  *  di    |  Hep  duy  |  du *  ğu muz   | 
a4 a2g2 f4  | g4 f2g2 f3g  | {_b}a6de fga2  | \
w:  kal bi mi zin   |  giz li  se siy  |  *  di   SAZ  | 
a6a6  | g2a2 _b2a4z2  | 
w:  Hep  duy  |  du *  ğu muz   | 
a4 a2g2 f4  | f4 f2f2 e2g2  | {a}f6z4z2  | \
w:  kal bi mi zin   |  giz li  se siy  |  *  di    | 
f6c6  | d2c2 _B2A4z2  | c4 c2c2 c4  | 
w:  Çam lık   |  bi *  ze  bir   |  kuy tu  mu hab  | 
f4 f2f2 e2g2  | {a}f6z4z2  | f6c6  | d2c2 _B2A4z2  | \
w:  bet  ka fe siy  |  *  di    |  Çam lık   |  bi *  ze  bir   | 
d4 d2d2 d4  | A4 A2A2 G2A2  | 
w:  kuy tu  mu hab  |  bet  ka fe siy  | 
{G}A8-A2z2  | |


